X:39
T:Fairy Jig, The
R:slip jig
H:See also #38
D:Paddy Glackin: In Full Spate
Z:id:hn-slipjig-39
M:9/8
K:Dmix
A2G Add Add|ABA AFA fAg|A2G Add ded|cAG A2G FED:|
|:~a3 fab afd|afd dfa baf|afa baf afd|cAG A2G FED:|
<end>
<start>
